X:66
T:Sonatine C - Dur
C:Beethoven
N:
L:1/8
Q:1/4=175
M:4/4
K:C
CE Gc eg c'g | af c'a ge c'g | fd gf ec ge | dc BA GF ED | CE Gc eg c'g | af c'a ge c'g | 
fa gf ed cB | cG EG C2 G,2 | G,B, DG Bd gf | ed cB cd ec | Bd ^cd Bd gf | ed cB cd e^f | 
g^f af gf af | gf dB GF DB, | CE Gc eg c'g | af c'a ge c'g | fa gf ed cB | cG EG C4 | 
 

